X:1
T:V_ Duo
T:V - Duo
T:Camille SAINT-SAENS
T:Benedictus qui venit. Oratorio de NOEL. Op. 12 
C:Camille Saint-Saens
%%score 1 2 { ( 3 6 ) | ( 4 5 ) }
L:1/8
Q:1/4=90
M:4/4
K:C
V:1 treble nm="Soprano" snm="S."
V:2 bass nm="Baryton" snm="Bar."
V:3 treble nm="PIANO"
V:6 treble 
V:4 bass 
V:5 bass 
V:1
"^Allegretto moderato" z8 | z8 | z8 |"^Soprano solo" e3 f ec A2 | B3 c B^G E2 | e2 A2 f4- | %6
w: |||Be- ne- dic- * tus,|be- ne- dic- * tus,|be- ne- dic-|
 fg e2 z e e2 | d c B c/ d/ c3/2 c/ B2 | A2 e2 f e d c/ B/ | A/B/ c2 B A2 z2 | x8 | x8 | x8 | x8 | %14
w: * * tus qui ve-|nit in no- mi ne Do- mini, *|qui ve- nit in no- mi ne|Do- * * mi- ni.|||||
 x8 | x8 |"^Soprano" z e2 d d^c z2 | z d2 =c cB z2 |"^cresc." z c e2- e^d (^f2 | %19
w: ||Be- ne- dictus, *|be- ne- dic- tus,|in no- * * *|
 ^f)e g2- gb/g/ fe | ^d3 d e"^dim." =d c B/ A/ | G2 ^F2 E2 z2 | z8 |!p! e3 f e^c A2 | z8 | %25
w: |* mi- ne, in no- mine *|Do- mi- ni.||De- us Do- mi- nus||
 z!mf! E/F/ G/A/B/^c/ d/c/d/e/ f/e/f/d/ | e/d/^c/B/ A/G/ F/E/ F A d f | g8- | g4 G4 | %29
w: Do- * * * * * * * * * * * * *|* * * * * * mi- * nus il- lu- xit|no-|* bis,|
 z ^F^GB (e3 =f |"^dim." d2 c2) B2 z2 |!p! e3 f ec A2 | B3 c B^G E2 | e2 A2 (f4 | f)g e2 z2 e2 | %35
w: il- lu- xit no- *|* * bis.|De- us Do- mi- nus,|De- us Do- mi- nus,|et il- lu-|* * xit, et|
 dc (B c/)d/ c2 B2 | z2 A2 de f e/d/ | c/d/ e2 ^G A2 z2 |"^Soprano""^sotto voce" A4 B4 | d4 ^c4 | %40
w: il- * lu- xit * no- bis,|et il- * lu- xit *|no- * * * bis.|De- us|me- us|
 ^f4 e4- | e z e2 d2 ^c2 | B4 (^c2 d2) | ^c2 B2 z4 | x8 | x8 | x8 | x8 | x8 | x8 | %50
w: es tu,|_ et con- fi-|te- bor _|ti- bi.|||||||
"^Soprano" A4 B4 | d4 ^c4 | ^f4 e4- | e z e2 d2 ^c2 | (B2 ^cd) c2 B2 |!mf! A2 z2 z ABd | %56
w: De- us|me- us|es tu,|_ et con- fi-|te- * * bor ti-|bi De- us me-|
 =c=f e2 z!mf! ABd | ceee f2 g2 | eeed c2 B2 | AABd cf e2 | z ABd cf e2 | z e e e f a2 g/f/ | %62
w: us es tu. De- us me-|us et ex- a1- ta- bo|te, et ex- al- ta- bo|te. De- us me- us es tu|De- us me- us es tu.|et ex- al- ta- bo _ _|
 e e e d c>d B2 | AA!f! e3 d d c/B/ | c c (g3 =f) fe/d/ | eg c'2- c'b^f^g | a=f e d c2 f2 | %67
w: te, et ex- al- ta- * bo|te; et ex- al- ta- bo _|te, et ex- * al- * *|ta * * * * * *|* * bo,et;- * * al-|
 e6 ^G2 | A2 z2 z4 | z8 | !fermata!z8 |] %71
w: ta bo|te.|||
V:2
 z8 | z8 | z8 | z8 | z8 | z8 | z8 | z8 | z8 |"^Baryton solo" z4!p! A,3 C | B,G, E,2 ^F,3 G, | %11
w: |||||||||Be- ne-|dic- * tus, be- ne-|
 ^F,^D, B,,2 B,2 E,2 | C4- CD B,2 | z B, B,2 A, G, ^F, G,/ A,/ | G,3/2 G,/ ^F,2 E,2 B,2 | %15
w: dic- * tus, be- ne-|dic- * * tus|qui ve- nit in no- mi ne|Do- mi- ni, qui ve-|
 CB, A, G,/ ^F,/ E,/F,/ G,2 F, | E,2 z2 z E, A,2 | =F,2 z2 z D, G,2 | E,2 z"^cresc." E, A,3 ^F, | %19
w: nit in no- mine * Do- * * mi-|ni, qui ve-|nit, qui ve-|nit in no- *|
 B,3 G, (C4 | C)D/C/ B, A, G,"^dim." B, A, G,/ ^F,/ | E,2 ^D,2 E,2 z2 |!p! B,3 C B,^G, E,2 | z8 | %24
w: |* * * * mi- ne, in no- mine *|Do- mi- ni.|De- us Do- mi- nus,||
!mf! A,2 ^C2 D2 _B,2 | A,8- | A,4 A,4 | z D,/E,/ F,/G,/A,/B,/ C/B,/C/E/ E/D/E/C/ | %28
w: et i1- 1u- xit|no-|* bis|Do- * * * * * * * * * * * * *|
 D/D/B,/A,/ G,/F,/ E,/D,/ E,G,CE | D4- D/C/B,/D/ C2- |"^dim." C B,2 A, ^G,2 z2 | z4!p! A,3 C | %32
w: * * * * * * mi- * nus il- lu- xit|no- * * * * *|* * * bis.|De- us|
 B,^G, E,2 E,3 D | CB, C2 A,2 D2 | (D3 C) B,2 z C | A,2 A,A, A,2 ^G,2 | A,2 E2 FE D C/B,/ | %37
w: Do- mi- nus, De- us|Do- mi- nus, et il-|1u- * xit, et|il- lu- xit no- bis,|et il- lu- * * xit *|
 A,/B,/ C2 B, A,2 z2 | z8 | z8 | z8 | z8 | z8 | z8 |"^Baryton""^sotto voce" A,4 B,4 | D4 ^C4 | %46
w: no- * * * bis.|||||||De- us|me- us|
 B,4 A,4- | A, z A,2 ^G,2 ^F,2 | E,4 (^F,2 ^G,2) | ^F,2 E,2 z4 | A,4 ^G,4 | ^F,4 E,4 | D,4 ^C,4- | %53
w: es tu,|* et con- fi-|te- bor _|ti- bi.|De- us|me- us|es tu,|
 C, z ^C,2 E,2 ^F,2 | (D,2 ^C,B,,) E,2 E,2 | A,,A,,B,,D, =C,=F, E,2 | z A,B,D CA, ^G,2 | %57
w: _ et con- fi-|te- * * bor ti-|bi. De- us me- us es tu,|De- us me- us es tu,|
 z A,B,C D2 B,2 | CCA,B, A,^G,/^F,/ G,2 | A,2 z2 z A,B,D | CF E2 z A,B,D | C C B, A, D2 B,2 | %62
w: et ex- al- ta- bo|te, et ex- al- ta- * * bo|te. De- us me-|us es tu De- us me-|us, et ex- al- ta- bo|
 C ^G, A, ^F, A,G,/F,/ G,2 | A,2 z!f! C, D,2 E,2 | A,2 z E, =F,2 G,2 | C2 z E ^D2 =D2 | %66
w: te, et ex- al- ta- * * bo|te, ex- a1- ta-|bo, ex- al- ta-|bo, et ex- a1-|
 C^G, A, F, A,2 D2 | C4 B,4 | A,2 z2 z4 | z8 | !fermata!z8 |] %71
w: ta- * bo, et ex- al-|ta- bo|te.|||
V:3
 z [CEA]"^H0"[EAc] z z [CFA][FAc] z | z [FAB][Adf] z z [B,E^G][Gde] z | %2
 z [A,CE][CEA][EAc] z [CEA][EAc][Ace] | z [EAc][Ace][Adf] z [Ace][EAc][CEA] | %4
 z [B,E^G][EGB][^DAc] z [EGB][B,EG][^G,B,E] | z [A,CE][CEA][EAc] z [A,DF][DFA][Adf] | %6
 z [Gdg][Gce][EGc] z [EBe][EAc][CEA] | [DAd][EAc][FAB][DAd] z [EAc][E^GB][^G,B,E] | %8
 z [A,CE][EAc][Ace] [Adf][Ace][Ad][FA] | z [CEA][EAc][D^GB] z [A,CE][CEA][EAc] | %10
 z [EGB][B,EG][F,B,E] z [^A,^C][A,C^F][A,CG] | %11
 z [B,^D^F][I:staff +1][^F,B,D][^D,F,B,][I:staff -1] z [G,B,E][B,EG][EGB] | %12
 z [A,CE][CEA][EAc] z [DAd][DGB][B,DG] | z [B,^FB][B,EG][G,B,E] [EA][DG][CF][EA] | %14
 z [EG][^D^F][DFB] z [G,B,E][B,EG][EGB] | [EAc][EGB][EA][C^F] z [B,EB][EGd][^DFc] | %16
 z [G,B,E][B,EG][EGB] z[I:staff +1] [E,A,^C][I:staff -1][A,CE][CEA] | %17
 z[I:staff +1] [=F,A,D][I:staff -1][A,=DF][DFA] z x3 | z [G,CE][CEG][EAe] z [A,^D^F][DFA][DFB] | %19
 z [B,EG][EGB].[GBe] z [CEA][EAc][Ac^f] | z [^FA][A^d][Fd] [Be][G=d][Ec][CEA] | %21
 [B,GB]2 [B,^FB]2 z [G,B,E][B,EG][EGB] | z [^F,B,E][B,E^G][CEA] z [B,EG][EGB][GBe] | %23
 z [^CEA][A^ce][Adf] z [Ace][EAc][CEA] | z [^CEA][EA^c][Ace] z [DAd][DG_B][_B,DG] | %25
 z [E,A,^C][A,CE][EAg] z [DFA][A,DF][F,A,D] | z [EA^c][^CEA][A,CE] z [A,DF][DFA][FAd] | %27
 z [G,B,D][B,DG][DGB] z [EGc][CEG][G,CE] | z [B,DG][DGB][GBd] z [Gce][EGc][CEG] | %29
 z [D^FB][D^GB][GBe] z [DGB][CA][Ac] | z [EBd] z [EAc] [E^GB] ([EG][^FA][GB] | %31
 [Ac]) [CEA][Ace][Adf] z [Ace][EAc][CEA] | z [B,E^G][EGB][EAc] z [EGB][B,EG][^G,B,E] | %33
 z [A,CE][CEA][Ace] z [A,DF][DFA][Adf] | z [Gdg][Gce][EGc] z [EBe][EAc][CEA] | %35
 [DAd][EAc][FAB][DAd] z [EAc][E^GB][^F,B,E] | z [A,CE][CEA][Ace] [FAd][EAe][DAf][FAd] | %37
 z [CEA][EAc].[D^GB] [CEA]2 z2 |!pp!"_tenuto" ([^CEA]4 [B,EB]4 | [Ad]4 [A^c]4 | [^FA^f]4 [Ae]4- | %41
 [Ae]) z ([Ee]2 [^Gd]2 [A^c]2 | [^FB]4 [A^c]2 [Ad]2 | [A^c]2 [^GB]2) z4 | (A4 ^G4 | A4 A4 | %46
 ^G4 ^F4- | F) z (^F2 E2 F2 | ^G4 ^F2 E2 | ^D2 E2) (^GBeE) | ([^CEA]4 [B,EB]4 | [DAd]4 [^CA^c]4 | %52
 [A,^FA]4 [A,EA-]4 | [A,EA]) z [E^ce]2 [^GBd]2 [Ac]2 | B2 ^cd c2 B2 | %55
 A"^shu'm/u" [A,=CE][B,E^G][EGB] z [CA][GB][Bd] | z [Ac][^GB][B,G] z [CA]B[Bd] | %57
 [Ac] [ce]BA [Af]2 g2 | [Ge][^Ge][Ae][^Fd] A E2 D | A .[CEA].[E^GB].[Bd] z [EAc][EGB][B,EG] | %60
 z [CA][E^GB][Bd] z [EAc][EGB][B,EG] | [EA] [Ee][^Ge][Ae] f a2 g/f/ | eeed c>d B2 | AA e3 d dc/B/ | %64
 [Ac]c g3 f fe/d/ | [ce]g c'2- c'b^f^g | afed c2 x2 | z .[CEA].[EAc].[Ace] z .[B,DE].[DE^G].[EGB] | %68
 [CEA]!f! A/B/ c/d/e/c/ f/d/^G/A/ B/c/d/B/ | e/d/c/B/ A/G/F/E/ D/C/B,/D/ E[B,DE^G] | %70
 [A,^CEA]2 z2 !fermata!z4 |] %71
V:4
!p! A, z z G, F, z z E, | D, z z B,, E, z z E,, | A,, z z2 A, z z2 | A, z z2 A, z z2 | %4
 E, z z2 E, z z2 | A, z z2 D, z z2 | B,2 z C ^G, z z A, | F,E,D,F, E, z z E, | C, z z2 D,E,F,D, | %9
 E, z z2 [A,,A,] z z2 | [G,,G,] z z2 [^F,,^F,] z z [E,,E,] | [^D,,^D,] z z2 [G,,G,] z z2 | %12
 [A,,A,] z z2 [^F,,^F,] z z [G,,G,] | [^D,,^D,] z z [E,,E,] [C,C][B,,B,][A,,A,][C,C] | %14
 [B,,B,] z z [A,,A,] [G,,G,] z z [E,,E,] | [A,,A,][B,,B,][C,C][A,,A,] B,, z z z | %16
 E, z z2 A,, z z2 | D, z z2 G,, z z2 | C, z z2 C, z z B,,/A,,/ | %19
 G,, z z [E,,E,] [A,,A,] z z [^F,,^F,] | [B,,B,] z z [A,,A,] [G,,G,][B,,B,][A,,A,]C, | %21
 [B,,E,]2 [B,,^D,]2 [E,,E,] z z2 | [E,,E,] z z2 E, z z2 | [A,,A,] z z2 A, z z2 | A,2 G,2 F,2 G,2 | %25
 x2 z2 A,,2 z2 | A,,2 z2 D,2 z2 | [B,,B,] z [G,,G,] z [E,,E,] z [C,,C,] z | %28
 [G,,,B,,] z [G,,,G,,] z [C,,C,] z z2 | [B,,B,] z z2 [A,,A,] z z2 | ^G, z A, z E, (DCB, | %31
 A,) z z2 A,, z z2 | E, z z2 E,, z z2 | A,, z z2 D, z z2 | B, z z C ^G, z z A, | %35
 F,E,D,F, E, z z E, | C, z z2 D, z z2 | E, z z2 A,,2 z2 | A,4 ^G,4 | [^F,A,]4 [A,E]4 | D4 [^CE]4- | %41
 x8 | D4 [^CE]2 [B,^F]2 | E2 E,2 (E,^G,B,D) | A,4 E,4 | A,4 ^C4 | B,4 A,4- | A, x A,2 ^G,2 ^F,2 | %48
 E,4 ^F,2 ^G,2 | ^F,2 E,2 (E,^G,B,D) | [A,,A,]4 [^G,,^G,]4 | [^F,,^F,]4 [E,,E,]4 | %52
 [D,,D,]4 [^C,,^C,]4- | [C,,C,] z [^C,,^C,]2 [E,,E,]2 [^F,,^F,]2 | ^F,2 A,4 ^G,2 | z4 A, z z2 | %56
 z4 A, z z2 | A,, [A,C][B,D][CE] D2 [B,D]2 | C[B,D][A,C][D,B,] E,4 | z4 A, z z2 | z4 A, z z2 | %61
 A,, [A,C][B,D][CE] D2 B,2 | C[^G,B,]A,[D,^F,] E,4 | A,2 x6 | %64
 [A,,A,]2 z [E,,E,] [=F,,=F,]2 [G,,G,]2 | [C,C]2 z F ^F3 =F | %66
 [CE][^G,B,][A,C][F,D] [E,A,]2 [D,A,]2 | E, z z2 E, z z2 | %68
 [A,,A,] A,/B,/ C/D/E/C/ F/D/^G,/A,/ B,/C/D/B,/ | E/D/C/B,/ A,/G,/F,/E,/ D,/C,/B,,/D,/ E,E, | %70
 [A,,E,]2 z2 !fermata!z4 |] %71
V:5
 x8 | x8 | x8 | x8 | x8 | x8 | x8 | x8 | x8 | x8 | x8 | x8 | x8 | x8 | x8 | x8 | x8 | %17
 x5 [D,G,B,][G,B,][I:staff -1][B,DG] | x8 | x8 | x8 | x8 | x8 | x8 | x8 | x8 | x8 | x8 | x8 | x8 | %30
 x8 | x8 | x8 | x8 | x8 | x8 | x8 | x8 | x8 | x8 | x8 | x8 | x8 | x8 |[I:staff +1] ^C4 B,4 | %45
 ^F,4 A,4 | E,4 ^F,4- | F, z ^F,2 ^C,2 A,,2 | ^C,4 ^D,2 E,2 | B,,2 E,,2 x4 | x8 | x8 | x8 | x8 | %54
 D,2 ^C,B,, E,4 | A,,8 | A,,8 | x8 | x4 A,^G,/^F,/ G,2 | A,,8 | A,,8 | x8 | x4 A,^G,/^F,/ G,2 | %63
 A,,2 z [C,,C,] [D,,D,]2 [E,,E,]2 | x8 | x3 A ^D2 =D2 | x8 | x8 | x8 | x8 | x8 |] %71
V:6
 x8 | x8 | x8 | x8 | x8 | x8 | x8 | x8 | x8 | x8 | x8 | x8 | x8 | x8 | x8 | x8 | x8 | x8 | x8 | %19
 x8 | x8 | x8 | x8 | x8 | x8 | x8 | x8 | x8 | x8 | x8 | x8 | x8 | x8 | x8 | x8 | x8 | x8 | x8 | %38
 x8 | x8 | x8 |[I:staff +1] [CE][I:staff -1] z[I:staff +1] [^C,A,]2 [E,B,]2 [A,^C]2 | x8 | x8 | %44
[I:staff -1] E4 E4 | D4 E4 | E4 ^C4- | C x ^C2 C2 C2 | E4 B,4 | B,A, ^G,2 x4 | x8 | x8 | x8 | x8 | %54
 ^F4 E4 | x8 | x8 | x8 | x4 c2 B2 | C x7 | x8 | x4 A2 d2 | edcB E3 D | C z z E ^F2 ^G2 | %64
 E z z G A2 B2 | GG c2- c B2 B | AdcA A2 [FAf]2 | x8 | x8 | x8 | x8 |] %71

